docs/icons/stroke_small_info.svg

<svg xmlns="http://www.w3.org/2000/svg" viewBox="0 0 100 100"><path d="M54.1 70.1h-7.8v-24h7.8v24zm-5.5-2.2h3.3V48.3h-3.3v19.6zm5.5-24.3h-7.8v-7.8h7.8v7.8zm-5.5-2.3h3.3V38h-3.3v3.3z"/></svg>

<?xml version="1.0" encoding="utf-8"?>
<svg version="1.1" id="Layer_1" xmlns="http://www.w3.org/2000/svg" xmlns:xlink="http://www.w3.org/1999/xlink" viewBox="0 0 100 100" xml:space="preserve">
<path d="M54.1,70.1h-7.8v-24h7.8V70.1z M48.6,67.9h3.3V48.3h-3.3V67.9z M54.1,43.6h-7.8v-7.8h7.8V43.6z M48.6,41.3h3.3v-3.3h-3.3
	V41.3z"/>
</svg>
